design-system/icons/cancel--labs-icons.svg

<svg width="21" height="20" viewBox="0 0 21 20" fill="none" xmlns="http://www.w3.org/2000/svg">
<g clip-path="url(#clip0_234_254)">
<mask id="mask0_234_254" style="mask-type:alpha" maskUnits="userSpaceOnUse" x="0" y="0" width="24" height="24">
<rect x="0.166626" width="23.0833" height="23.0833" fill="currentColor"/>
</mask>
<g mask="url(#mask0_234_254)">
<path d="M10.1665 11.0833L12.4373 13.3541C12.6457 13.5625 12.9026 13.6666 13.2082 13.6666C13.5137 13.6666 13.7707 13.5625 13.979 13.3541C14.1873 13.1458 14.2915 12.8888 14.2915 12.5833C14.2915 12.2777 14.1873 12.0208 13.979 11.8125L11.7082 9.54163L13.979 7.27079C14.1873 7.06246 14.2915 6.80552 14.2915 6.49996C14.2915 6.1944 14.1873 5.93746 13.979 5.72913C13.7707 5.52079 13.5137 5.41663 13.2082 5.41663C12.9026 5.41663 12.6457 5.52079 12.4373 5.72913L10.1665 7.99996L7.89567 5.72913C7.68734 5.52079 7.43039 5.41663 7.12484 5.41663C6.81928 5.41663 6.56234 5.52079 6.354 5.72913C6.14567 5.93746 6.0415 6.1944 6.0415 6.49996C6.0415 6.80552 6.14567 7.06246 6.354 7.27079L8.62484 9.54163L6.354 11.8125C6.14567 12.0208 6.0415 12.2777 6.0415 12.5833C6.0415 12.8888 6.14567 13.1458 6.354 13.3541C6.56234 13.5625 6.81928 13.6666 7.12484 13.6666C7.43039 13.6666 7.68734 13.5625 7.89567 13.3541L10.1665 11.0833ZM10.1665 18.5416C8.9165 18.5416 7.74637 18.3055 6.65609 17.8333C5.56581 17.3611 4.61442 16.7187 3.80192 15.9062C2.98942 15.0937 2.34706 14.1423 1.87484 13.052C1.40262 11.9618 1.1665 10.7916 1.1665 9.54163C1.1665 8.29163 1.40262 7.11802 1.87484 6.02079C2.34706 4.92357 2.98942 3.96871 3.80192 3.15621C4.61442 2.34371 5.56581 1.70482 6.65609 1.23954C7.74637 0.774265 8.9165 0.541626 10.1665 0.541626C11.4165 0.541626 12.5901 0.774265 13.6873 1.23954C14.7846 1.70482 15.7394 2.34371 16.5519 3.15621C17.3644 3.96871 18.0033 4.92357 18.4686 6.02079C18.9339 7.11802 19.1665 8.29163 19.1665 9.54163C19.1665 10.7916 18.9339 11.9618 18.4686 13.052C18.0033 14.1423 17.3644 15.0937 16.5519 15.9062C15.7394 16.7187 14.7846 17.3611 13.6873 17.8333C12.5901 18.3055 11.4165 18.5416 10.1665 18.5416Z" fill="currentColor"/>
</g>
</g>
<defs>
<clipPath id="clip0_234_254">
<rect width="20" height="20" fill="white" transform="translate(0.166626)"/>
</clipPath>
</defs>
</svg>

<svg xmlns="http://www.w3.org/2000/svg" width="21" height="20" fill="none" viewBox="0 0 21 20"><g clip-path="url(#a)"><mask id="b" width="24" height="24" x="0" y="0" maskUnits="userSpaceOnUse" style="mask-type:alpha"><path fill="currentColor" d="M.167 0H23.25v23.083H.167z"/></mask><g mask="url(#b)"><path fill="currentColor" d="m10.167 11.083 2.27 2.271q.313.313.771.313.459 0 .771-.313.313-.312.313-.77 0-.459-.313-.771l-2.27-2.271 2.27-2.271q.313-.313.313-.771 0-.46-.313-.77a1.05 1.05 0 0 0-.77-.313q-.459 0-.772.312L10.167 8 7.895 5.73a1.05 1.05 0 0 0-.771-.313q-.459 0-.771.312a1.05 1.05 0 0 0-.312.771q0 .459.312.77l2.27 2.272-2.27 2.27a1.05 1.05 0 0 0-.312.771q0 .459.312.771.312.313.77.313.459 0 .772-.313zm0 7.459q-1.875 0-3.51-.709a9.1 9.1 0 0 1-2.855-1.927 9.1 9.1 0 0 1-1.927-2.854 8.7 8.7 0 0 1-.708-3.51q0-1.875.708-3.521a9.1 9.1 0 0 1 1.927-2.865A9 9 0 0 1 6.656 1.24a8.85 8.85 0 0 1 3.51-.698q1.875 0 3.521.698a8.9 8.9 0 0 1 2.865 1.916 8.9 8.9 0 0 1 1.917 2.865 8.9 8.9 0 0 1 .697 3.52q0 1.875-.697 3.511a9 9 0 0 1-1.917 2.854 9.1 9.1 0 0 1-2.865 1.927 8.8 8.8 0 0 1-3.52.709"/></g></g><defs><clipPath id="a"><path fill="#fff" d="M.167 0h20v20h-20z"/></clipPath></defs></svg>
